X:1
B:Patterson, D W, 1979, The Shaker Spiritual, Princeton University Press, New Jersey
Z:Daniel W Patterson
F:http://www.folkinfo.org/songs
T:Shaker Solemn Song 2(A)
Z:Elder Otis Saywer, Maine
M:4/4     %Meter
L:1/8     %
K:C
F4 (FG) A2 |c4 c3 d |c2 A2 (G3F) |F3 F B2 c2 |
d4 d3 f |c2 (AG) G3 F |(FG) A2 c4 |c3 d c2 A2 |
(G3F) F3 G |(AG) F2 (D3C) |C3 D F2 (FG) |F4 :|
F3 G |:(AG) F2 D4 |C3 D G2 (GA) |G3 F (AG) F2 |
D4 C3 D |1F2 (FG) F3 G :|2F2 (FG) F4 |]